images/mind-sand.svg

<svg fill="none" height="204" viewBox="0 0 204 204" width="204" xmlns="http://www.w3.org/2000/svg"><g fill="#fece03"><path d="m29.3867 153.058c-6.2376 0-11.3125 5.076-11.3125 11.316s5.0745 11.316 11.3125 11.316c6.2379 0 11.3128-5.076 11.3128-11.316s-5.0753-11.316-11.3128-11.316zm0 16.656c-2.9421 0-5.3359-2.396-5.3359-5.34s2.3938-5.34 5.3359-5.34c2.9424 0 5.3362 2.396 5.3362 5.34s-2.3938 5.34-5.3362 5.34z"/><path d="m155.25 175.691c6.238 0 11.313-5.077 11.313-11.316 0-6.24-5.075-11.317-11.313-11.317s-11.313 5.077-11.313 11.317c0 6.239 5.075 11.316 11.313 11.316zm0-16.657c2.942 0 5.336 2.396 5.336 5.34s-2.394 5.34-5.336 5.34-5.336-2.396-5.336-5.34 2.394-5.34 5.336-5.34z"/><path d="m42.48 157.417c-.563.765-.7291 1.752-.4474 2.659.4299 1.386.6482 2.831.6482 4.298 0 1.466-.2183 2.913-.6486 4.298-.2813.907-.1152 1.894.4482 2.659.563.764 1.4559 1.216 2.4058 1.216h94.8638c.95 0 1.843-.452 2.406-1.216.563-.765.729-1.752.448-2.659-.43-1.386-.648-2.832-.648-4.298 0-1.467.218-2.913.648-4.298.281-.907.115-1.894-.448-2.659-.563-.764-1.456-1.216-2.406-1.216h-94.8638c-.9491 0-1.8428.452-2.4062 1.216zm6.0611 4.761h87.5559c-.078.727-.118 1.46-.118 2.196s.04 1.469.118 2.196h-87.5563c.0777-.727.1171-1.46.1171-2.196s-.039-1.469-.1167-2.196z"/></g><path d="m79.8997 112.452c-1.6508 0-2.9883 1.337-2.9883 2.988s1.3375 2.988 2.9883 2.988h6.9543c1.6507 0 2.9883-1.337 2.9883-2.988s-1.3376-2.988-2.9883-2.988z" fill="#374a5c"/><path d="m17.0075 123.121c1.1061 0 2.1695-.617 2.6875-1.678l7.0551-14.447c.724-1.483.1088-3.273-1.3738-3.997-1.4834-.724-3.2728-.108-3.9963 1.374l-7.0552 14.448c-.7239 1.483-.1087 3.272 1.3738 3.996.422.206.8686.304 1.3089.304z" fill="#fece03"/><path d="m31.1406 123.121c1.1061 0 2.1695-.617 2.6875-1.678l7.0555-14.447c.724-1.483.1092-3.273-1.3738-3.997-1.4838-.724-3.2727-.109-3.9963 1.374l-7.0555 14.448c-.724 1.483-.1092 3.272 1.3738 3.996.4223.206.869.304 1.3088.304z" fill="#fece03"/><path d="m45.2744 123.121c1.1061 0 2.1695-.617 2.6875-1.678l7.0555-14.447c.724-1.483.1092-3.273-1.3738-3.997-1.4834-.724-3.2724-.109-3.9963 1.374l-7.0556 14.448c-.7239 1.483-.1091 3.272 1.3739 3.996.4219.206.8686.304 1.3088.304z" fill="#fece03"/><path d="m202.908 106.097-7.362-17.0547c-.038-.0877-.081-.173-.126-.2562l-12.599-30.0976c-.637-1.5224-2.389-2.24-3.909-1.6025-1.523.6371-2.24 2.3878-1.603 3.9098l11.581 27.6663-3.958 1.7105-26.465-50.8107v-.0004l-.586-1.1244-3.502-6.724c-.003-.0064-.005-.0132-.008-.0195-.084-.1614-.157-.3256-.221-.4917-.021-.055-.037-.1112-.056-.1666-.043-.1215-.083-.2434-.115-.3673-.015-.0586-.027-.1176-.04-.1765-.028-.1275-.053-.2554-.071-.3849-.007-.051-.013-.102-.018-.1534-.015-.1435-.024-.2881-.026-.4335-.01-.5969.084-1.1977.297-1.781.481-1.3169 1.459-2.3357 2.755-2.8692 2.497-1.0276 5.378.1642 6.422 2.6564l9.353 22.344c.637 1.5228 2.389 2.2404 3.909 1.6025 1.523-.6371 2.24-2.3878 1.603-3.9099l-9.353-22.3444c-2.308-5.5135-8.682-8.1496-14.209-5.8753-2.825 1.1622-5.047 3.4756-6.095 6.3459-.201.5494-.355 1.1116-.463 1.6794l-45.443 18.6967c-.774-.1096-1.564-.1701-2.369-.1701h-12.0958c-4.2717 0-7.7468 3.4763-7.7468 7.7492v12.836h-8.0234c-3.8102 0-6.9105 3.1007-6.9105 6.9125v16.9727c0 .5159-.4191.9359-.9339.9359h-57.6101c-3.81066.0004-6.9105 3.101-6.9105 6.9125v7.2495c0 1.651 1.33755 2.989 2.98828 2.989s2.98828-1.338 2.98828-2.989v-7.2495c0-.516.41916-.9359.93394-.9359h57.6105c3.8102 0 6.9105-3.1007 6.9105-6.9125v-16.9727c0-.5159.4191-.9359.9339-.9359h11.0116 30.683 2.061c.437 0 .827.2438 1.019.6371l9.085 18.6158c.26.5327.397 1.1268.397 1.7189v36.2027c0 .626-.508 1.136-1.134 1.136h-6.792-56.1835-55.602c-.51478 0-.93394-.42-.93394-.936v-12.327c0-1.651-1.33755-2.988-2.98828-2.988s-2.98828 1.337-2.98828 2.988v12.327c0 3.812 3.09984 6.913 6.9105 6.913h52.6141v6.529h-32.948c-11.6324 0-21.09649 9.463-21.09649 21.105 0 11.632 9.46369 21.096 21.09649 21.096h131.4834c11.633 0 21.097-9.463 21.097-21.105 0-11.632-9.464-21.096-21.097-21.096h-36.376v-6.529h3.804c3.921 0 7.111-3.191 7.111-7.113v-36.2027c0-1.495-.347-2.9955-1.003-4.3398l-9.085-18.6162c-1.047-2.1452-3.13-3.6162-5.463-3.9286v-1.5288l37.512-20.0163 24.87 47.7511-28.052 12.1233c-1.899.821-3.09 2.616-3.107 4.685-.017 2.037 1.172 3.896 3.029 4.736l27.009 12.206c1.735.785 3.58 1.182 5.485 1.182 1.828 0 3.605-.367 5.283-1.092l6.885-2.975c6.742-2.914 9.858-10.773 6.946-17.518zm-137.4069 30.647h50.2069v6.529h-.001-50.2059zm92.5589 12.506c8.337 0 15.12 6.782 15.12 15.129 0 8.337-6.783 15.12-15.12 15.12h-131.4834c-8.3369 0-15.1199-6.783-15.1199-15.129 0-8.337 6.7826-15.12 15.1199-15.12h35.9359 56.1835zm-46.99-86.5321v.5056 3.2576h-24.7047v-.0004-12.836c0-.9774.7941-1.7727 1.7703-1.7727h12.0964c.737 0 1.458.0749 2.154.216.271.0546.536.1223.799.1968.061.0175.123.0339.184.0522.239.0725.475.1542.706.2423.079.0298.158.0609.236.0928.218.0892.434.1837.645.2865.081.0394.161.082.241.1235.173.0896.344.1837.512.2825.096.0569.192.1155.287.1753.163.1028.323.21.479.3211.072.0506.144.0996.213.1518.188.1399.37.2869.548.4383.061.0518.122.104.181.157.184.1634.363.3319.534.5072.04.0398.077.0809.116.1215.186.1961.369.3965.54.606.002.0028.004.0056.006.008.189.2311.369.4702.538.7164.003.0044.007.0092.01.0136.169.2458.327.4992.476.759.005.0083.009.0163.014.0243.595 1.0459 1.019 2.1966 1.241 3.4098.005.0311.011.0622.016.0936.049.2805.087.5642.113.8507.004.0383.006.0765.009.1152.024.292.039.5865.039.8837v.0008zm5.449-4.1944c-.588-2.283-1.647-4.3768-3.063-6.1785-.035-.0451-.07-.0901-.106-.1351-.106-.1327-.214-.263-.324-.3921-.059-.0693-.119-.1378-.179-.206-.097-.1095-.194-.2187-.293-.3259-.085-.0912-.171-.1809-.258-.2701-.082-.0849-.163-.1702-.247-.2534-.133-.1315-.269-.2594-.405-.3861-.044-.0403-.085-.0817-.129-.1215-.359-.3264-.732-.6383-1.12-.9336l38.267-15.7446c.011.0255.025.0498.035.0753.117.2781.241.5534.382.8224l2.721 5.2243zm77.071 59.6055-6.884 2.976c-1.888.815-4.06.798-5.935-.049l-25.305-11.437 29.048-12.5538c.083-.0275.165-.0566.246-.0917l6.485-2.8129 6.176 14.3054c1.607 3.72-.112 8.056-3.831 9.663z" fill="#374a5c"/><path d="m117.708 108.468c2.12 0 3.844-1.725 3.844-3.844v-10.3224c0-.5777-.133-1.159-.389-1.6862l-6.907-14.1529c-.64-1.3112-1.997-2.1583-3.455-2.1583h-30.5245c-2.1197 0-3.8441 1.7248-3.8441 3.8445v14.0593c0 1.0192.4155 2.0153 1.1423 2.7349l10.5411 10.4161c.7239.715 1.6837 1.109 2.7014 1.109zm-35.2991-15.1505v-11.0371h27.0601l6.107 12.5133v7.6983h-23.8827z" fill="#374a5c"/></svg>

<svg width="204" height="204" viewBox="0 0 204 204" fill="none" xmlns="http://www.w3.org/2000/svg">
<path d="M29.3867 153.058C23.1491 153.058 18.0742 158.134 18.0742 164.374C18.0742 170.614 23.1487 175.69 29.3867 175.69C35.6246 175.69 40.6995 170.614 40.6995 164.374C40.6995 158.134 35.6242 153.058 29.3867 153.058ZM29.3867 169.714C26.4446 169.714 24.0508 167.318 24.0508 164.374C24.0508 161.43 26.4446 159.034 29.3867 159.034C32.3291 159.034 34.7229 161.43 34.7229 164.374C34.7229 167.318 32.3291 169.714 29.3867 169.714Z" fill="#FECE03"/>
<path d="M155.25 175.691C161.488 175.691 166.563 170.614 166.563 164.375C166.563 158.135 161.488 153.058 155.25 153.058C149.012 153.058 143.937 158.135 143.937 164.375C143.937 170.614 149.012 175.691 155.25 175.691ZM155.25 159.034C158.192 159.034 160.586 161.43 160.586 164.374C160.586 167.318 158.192 169.714 155.25 169.714C152.308 169.714 149.914 167.318 149.914 164.374C149.914 161.43 152.308 159.034 155.25 159.034Z" fill="#FECE03"/>
<path d="M42.48 157.417C41.917 158.182 41.7509 159.169 42.0326 160.076C42.4625 161.462 42.6808 162.907 42.6808 164.374C42.6808 165.84 42.4625 167.287 42.0322 168.672C41.7509 169.579 41.917 170.566 42.4804 171.331C43.0434 172.095 43.9363 172.547 44.8862 172.547H139.75C140.7 172.547 141.593 172.095 142.156 171.331C142.719 170.566 142.885 169.579 142.604 168.672C142.174 167.286 141.956 165.84 141.956 164.374C141.956 162.907 142.174 161.461 142.604 160.076C142.885 159.169 142.719 158.182 142.156 157.417C141.593 156.653 140.7 156.201 139.75 156.201H44.8862C43.9371 156.201 43.0434 156.653 42.48 157.417ZM48.5411 162.178H136.097C136.019 162.905 135.979 163.638 135.979 164.374C135.979 165.11 136.019 165.843 136.097 166.57H48.5407C48.6184 165.843 48.6578 165.11 48.6578 164.374C48.6578 163.638 48.6188 162.905 48.5411 162.178Z" fill="#FECE03"/>
<path d="M79.8997 112.452C78.2489 112.452 76.9114 113.789 76.9114 115.44C76.9114 117.091 78.2489 118.428 79.8997 118.428H86.854C88.5047 118.428 89.8423 117.091 89.8423 115.44C89.8423 113.789 88.5047 112.452 86.854 112.452H79.8997Z" fill="#374A5C"/>
<path d="M17.0075 123.121C18.1136 123.121 19.177 122.504 19.695 121.443L26.7501 106.996C27.4741 105.513 26.8589 103.723 25.3763 102.999C23.8929 102.275 22.1035 102.891 21.38 104.373L14.3248 118.821C13.6009 120.304 14.2161 122.093 15.6986 122.817C16.1206 123.023 16.5672 123.121 17.0075 123.121Z" fill="#FECE03"/>
<path d="M31.1406 123.121C32.2467 123.121 33.3101 122.504 33.8281 121.443L40.8836 106.996C41.6076 105.513 40.9928 103.723 39.5098 102.999C38.026 102.275 36.2371 102.89 35.5135 104.373L28.458 118.821C27.734 120.304 28.3488 122.093 29.8318 122.817C30.2541 123.023 30.7008 123.121 31.1406 123.121Z" fill="#FECE03"/>
<path d="M45.2744 123.121C46.3805 123.121 47.4439 122.504 47.9619 121.443L55.0174 106.996C55.7414 105.513 55.1266 103.723 53.6436 102.999C52.1602 102.275 50.3712 102.89 49.6473 104.373L42.5917 118.821C41.8678 120.304 42.4826 122.093 43.9656 122.817C44.3875 123.023 44.8342 123.121 45.2744 123.121Z" fill="#FECE03"/>
<path d="M202.908 106.097L195.546 89.0423C195.508 88.9546 195.465 88.8693 195.42 88.7861L182.821 58.6885C182.184 57.1661 180.432 56.4485 178.912 57.086C177.389 57.7231 176.672 59.4738 177.309 60.9958L188.89 88.6621L184.932 90.3726L158.467 39.5619L158.467 39.5615L157.881 38.4371L154.379 31.7131C154.376 31.7067 154.374 31.6999 154.371 31.6936C154.287 31.5322 154.214 31.368 154.15 31.2019C154.129 31.1469 154.113 31.0907 154.094 31.0353C154.051 30.9138 154.011 30.7919 153.979 30.668C153.964 30.6094 153.952 30.5504 153.939 30.4915C153.911 30.364 153.886 30.2361 153.868 30.1066C153.861 30.0556 153.855 30.0046 153.85 29.9532C153.835 29.8097 153.826 29.6651 153.824 29.5197C153.814 28.9228 153.908 28.322 154.121 27.7387C154.602 26.4218 155.58 25.403 156.876 24.8695C159.373 23.8419 162.254 25.0337 163.298 27.5259L172.651 49.8699C173.288 51.3927 175.04 52.1103 176.56 51.4724C178.083 50.8353 178.8 49.0846 178.163 47.5625L168.81 25.2181C166.502 19.7046 160.128 17.0685 154.601 19.3428C151.776 20.505 149.554 22.8184 148.506 25.6887C148.305 26.2381 148.151 26.8003 148.043 27.3681L102.6 46.0648C101.826 45.9552 101.036 45.8947 100.231 45.8947H88.1352C83.8635 45.8947 80.3884 49.371 80.3884 53.6439V66.4799H72.365C68.5548 66.4799 65.4545 69.5806 65.4545 73.3924V90.3651C65.4545 90.881 65.0354 91.301 64.5206 91.301H6.9105C3.09984 91.3014 0 94.402 0 98.2135V105.463C0 107.114 1.33755 108.452 2.98828 108.452C4.63901 108.452 5.97656 107.114 5.97656 105.463V98.2135C5.97656 97.6975 6.39572 97.2776 6.9105 97.2776H64.521C68.3312 97.2776 71.4315 94.1769 71.4315 90.3651V73.3924C71.4315 72.8765 71.8506 72.4565 72.3654 72.4565H83.377H114.06H116.121C116.558 72.4565 116.948 72.7003 117.14 73.0936L126.225 91.7094C126.485 92.2421 126.622 92.8362 126.622 93.4283V129.631C126.622 130.257 126.114 130.767 125.488 130.767H118.696H62.5125H6.9105C6.39572 130.767 5.97656 130.347 5.97656 129.831V117.504C5.97656 115.853 4.63901 114.516 2.98828 114.516C1.33755 114.516 0 115.853 0 117.504V129.831C0 133.643 3.09984 136.744 6.9105 136.744H59.5246V143.273H26.5766C14.9442 143.273 5.48011 152.736 5.48011 164.378C5.48011 176.01 14.9438 185.474 26.5766 185.474H158.06C169.693 185.474 179.157 176.011 179.157 164.369C179.157 152.737 169.693 143.273 158.06 143.273H121.684V136.744H125.488C129.409 136.744 132.599 133.553 132.599 129.631V93.4283C132.599 91.9333 132.252 90.4328 131.596 89.0885L122.511 70.4723C121.464 68.3271 119.381 66.8561 117.048 66.5437V65.0149L154.56 44.9986L179.43 92.7497L151.378 104.873C149.479 105.694 148.288 107.489 148.271 109.558C148.254 111.595 149.443 113.454 151.3 114.294L178.309 126.5C180.044 127.285 181.889 127.682 183.794 127.682C185.622 127.682 187.399 127.315 189.077 126.59L195.962 123.615C202.704 120.701 205.82 112.842 202.908 106.097ZM65.5011 136.744H115.708V143.273H115.707H65.5011V136.744ZM158.06 149.25C166.397 149.25 173.18 156.032 173.18 164.379C173.18 172.716 166.397 179.499 158.06 179.499H26.5766C18.2397 179.499 11.4567 172.716 11.4567 164.37C11.4567 156.033 18.2393 149.25 26.5766 149.25H62.5125H118.696H158.06ZM111.07 62.7179V63.2235V66.4811H86.3653V66.4807V53.6447C86.3653 52.6673 87.1594 51.872 88.1356 51.872H100.232C100.969 51.872 101.69 51.9469 102.386 52.088C102.657 52.1426 102.922 52.2103 103.185 52.2848C103.246 52.3023 103.308 52.3187 103.369 52.337C103.608 52.4095 103.844 52.4912 104.075 52.5793C104.154 52.6091 104.233 52.6402 104.311 52.6721C104.529 52.7613 104.745 52.8558 104.956 52.9586C105.037 52.998 105.117 53.0406 105.197 53.0821C105.37 53.1717 105.541 53.2658 105.709 53.3646C105.805 53.4215 105.901 53.4801 105.996 53.5399C106.159 53.6427 106.319 53.7499 106.475 53.861C106.547 53.9116 106.619 53.9606 106.688 54.0128C106.876 54.1527 107.058 54.2997 107.236 54.4511C107.297 54.5029 107.358 54.5551 107.417 54.6081C107.601 54.7715 107.78 54.94 107.951 55.1153C107.991 55.1551 108.028 55.1962 108.067 55.2368C108.253 55.4329 108.436 55.6333 108.607 55.8428C108.609 55.8456 108.611 55.8484 108.613 55.8508C108.802 56.0819 108.982 56.321 109.151 56.5672C109.154 56.5716 109.158 56.5764 109.161 56.5808C109.33 56.8266 109.488 57.08 109.637 57.3398C109.642 57.3481 109.646 57.3561 109.651 57.3641C110.246 58.41 110.67 59.5607 110.892 60.7739C110.897 60.805 110.903 60.8361 110.908 60.8675C110.957 61.148 110.995 61.4317 111.021 61.7182C111.025 61.7565 111.027 61.7947 111.03 61.8334C111.054 62.1254 111.069 62.4199 111.069 62.7171V62.7179H111.07ZM116.519 58.5235C115.931 56.2405 114.872 54.1467 113.456 52.345C113.421 52.2999 113.386 52.2549 113.35 52.2099C113.244 52.0772 113.136 51.9469 113.026 51.8178C112.967 51.7485 112.907 51.68 112.847 51.6118C112.75 51.5023 112.653 51.3931 112.554 51.2859C112.469 51.1947 112.383 51.105 112.296 51.0158C112.214 50.9309 112.133 50.8456 112.049 50.7624C111.916 50.6309 111.78 50.503 111.644 50.3763C111.6 50.336 111.559 50.2946 111.515 50.2548C111.156 49.9284 110.783 49.6165 110.395 49.3212L148.662 33.5766C148.673 33.6021 148.687 33.6264 148.697 33.6519C148.814 33.93 148.938 34.2053 149.079 34.4743L151.8 39.6986L116.519 58.5235ZM193.59 118.129L186.706 121.105C184.818 121.92 182.646 121.903 180.771 121.056L155.466 109.619L184.514 97.0652C184.597 97.0377 184.679 97.0086 184.76 96.9735L191.245 94.1606L197.421 108.466C199.028 112.186 197.309 116.522 193.59 118.129Z" fill="#374A5C"/>
<path d="M117.708 108.468V108.468C119.828 108.468 121.552 106.743 121.552 104.624V94.3016C121.552 93.7239 121.419 93.1426 121.163 92.6154L114.256 78.4625C113.616 77.1513 112.259 76.3042 110.801 76.3042H80.2765C78.1568 76.3042 76.4324 78.029 76.4324 80.1487V94.208C76.4324 95.2272 76.8479 96.2233 77.5747 96.9429L88.1158 107.359C88.8397 108.074 89.7995 108.468 90.8172 108.468H117.708ZM82.4089 93.3175V82.2804H109.469L115.576 94.7937V102.492H91.6933L82.4089 93.3175Z" fill="#374A5C"/>
</svg>
